local/share/icons/dracula-icons-main/scalable/apps/ktnef.svg

<?xml version="1.0" encoding="UTF-8"?>
<svg xmlns="http://www.w3.org/2000/svg" xmlns:xlink="http://www.w3.org/1999/xlink" width="64" height="64" viewBox="0 0 64 64">
<path fill-rule="nonzero" fill="rgb(18.431373%, 55.294118%, 67.45098%)" fill-opacity="1" d="M 8.464844 1.324219 C 5.335938 1.324219 2.570312 3.359375 1.644531 6.351562 L 15.28125 6.351562 C 14.355469 3.363281 11.59375 1.328125 8.46875 1.324219 Z M 8.464844 1.324219 "/>
<path fill-rule="nonzero" fill="rgb(100%, 100%, 100%)" fill-opacity="1" d="M 14.816406 8.464844 C 14.816406 11.972656 11.972656 14.816406 8.464844 14.816406 C 4.960938 14.816406 2.117188 11.972656 2.117188 8.464844 C 2.117188 4.960938 4.960938 2.117188 8.464844 2.117188 C 11.972656 2.117188 14.816406 4.960938 14.816406 8.464844 Z M 14.816406 8.464844 "/>
<path fill-rule="nonzero" fill="rgb(14.901961%, 64.313725%, 79.215686%)" fill-opacity="1" d="M 14.867188 5.300781 L 3.402344 13.5 C 4.742188 14.847656 6.5625 15.609375 8.464844 15.609375 C 12.410156 15.609375 15.609375 12.410156 15.609375 8.464844 C 15.609375 7.367188 15.355469 6.285156 14.867188 5.300781 Z M 14.867188 5.300781 "/>
<path fill-rule="nonzero" fill="rgb(28.627451%, 74.117647%, 89.019608%)" fill-opacity="1" d="M 2.070312 5.304688 C 1.582031 6.285156 1.324219 7.367188 1.324219 8.464844 C 1.324219 12.410156 4.519531 15.609375 8.464844 15.609375 C 10.367188 15.609375 12.1875 14.847656 13.527344 13.5 Z M 2.070312 5.304688 "/>
<path fill-rule="nonzero" fill="rgb(100%, 100%, 100%)" fill-opacity="1" d="M 14.054688 9.648438 C 14.367188 9.957031 14.367188 10.457031 14.054688 10.769531 L 11.628906 13.195312 C 11.214844 13.609375 10.546875 13.609375 10.132812 13.195312 C 9.71875 12.78125 9.71875 12.113281 10.132812 11.699219 L 12.558594 9.273438 L 12.746094 9.460938 L 10.320312 11.886719 C 10.007812 12.195312 10.007812 12.699219 10.320312 13.007812 C 10.628906 13.320312 11.132812 13.320312 11.441406 13.007812 L 13.867188 10.582031 C 14.074219 10.375 14.074219 10.042969 13.867188 9.835938 C 13.660156 9.628906 13.328125 9.628906 13.121094 9.835938 L 10.695312 12.261719 C 10.589844 12.363281 10.589844 12.53125 10.695312 12.632812 C 10.796875 12.738281 10.964844 12.738281 11.066406 12.632812 L 13.308594 10.394531 L 13.492188 10.582031 L 11.253906 12.820312 C 11.046875 13.027344 10.714844 13.027344 10.507812 12.820312 C 10.300781 12.613281 10.300781 12.28125 10.507812 12.074219 L 12.933594 9.648438 C 13.242188 9.335938 13.742188 9.335938 14.054688 9.648438 "/>
</svg>

<svg width="64" height="64" version="1.1" viewBox="0 0 16.933 16.933" xmlns="http://www.w3.org/2000/svg">
 <path d="m8.4665 1.3229a7.1436 7.1436 0 0 0-6.8227 5.027h13.638a7.1436 7.1436 0 0 0-6.815-5.027z" fill="#2f8dac" style="paint-order:stroke fill markers"/>
 <circle cx="8.4665" cy="8.4665" r="6.3499" fill="#fff" stroke-width=".88889" style="paint-order:stroke fill markers"/>
 <path d="m14.866 5.3009-11.464 8.1993a7.1436 7.1436 0 0 0 5.0637 2.1099 7.1436 7.1436 0 0 0 7.1436-7.1436 7.1436 7.1436 0 0 0-0.74361-3.1656z" fill="#26a4ca" style="paint-order:markers stroke fill"/>
 <path d="m2.0706 5.304a7.1436 7.1436 0 0 0-0.74774 3.1625 7.1436 7.1436 0 0 0 7.1436 7.1436 7.1436 7.1436 0 0 0 5.0621-2.1109z" fill="#49bde3" style="paint-order:markers stroke fill"/>
 <path d="m14.055 9.6475c0.31088 0.31088 0.31088 0.81146 0 1.1226l-2.4257 2.4257c-0.41459 0.41459-1.0821 0.41459-1.4967 0-0.41459-0.41459-0.41459-1.0821 0-1.4967l2.4257-2.4257 0.18706 0.18706-2.4257 2.4257c-0.31088 0.31088-0.31088 0.81146 0 1.1226 0.31088 0.31088 0.81146 0.31088 1.1226 0l2.4257-2.4257c0.20716-0.20716 0.20716-0.54106 0-0.74823-0.20716-0.20716-0.54106-0.20716-0.74823 0l-2.4257 2.4257c-0.10371 0.10371-0.10371 0.27066 0 0.37411 0.10371 0.10371 0.2704 0.10371 0.37411 0l2.2386-2.2386 0.18706 0.18706-2.2386 2.2386c-0.20716 0.20716-0.54106 0.20716-0.74823 0-0.20716-0.20716-0.20716-0.54106 0-0.74823l2.4257-2.4257c0.31088-0.31088 0.81146-0.31088 1.1226 0" color-rendering="auto" fill="#fff" image-rendering="auto" shape-rendering="auto" stroke-width=".26458"/>
</svg>
